svg/aws-ec2-r5ad.svg

<?xml version="1.0" encoding="UTF-8"?>
<svg xmlns="http://www.w3.org/2000/svg" xmlns:xlink="http://www.w3.org/1999/xlink" width="32" height="32" viewBox="0 0 32 32">
<path fill-rule="evenodd" fill="rgb(83.137255%, 35.686275%, 2.745098%)" fill-opacity="1" d="M 6 26 L 26 26 L 26 6 L 6 6 Z M 30.667969 8.667969 L 30.667969 7.332031 L 27.332031 7.332031 L 27.332031 5.332031 C 27.332031 4.964844 27.035156 4.667969 26.667969 4.667969 L 24.667969 4.667969 L 24.667969 1.332031 L 23.332031 1.332031 L 23.332031 4.667969 L 20.667969 4.667969 L 20.667969 1.332031 L 19.332031 1.332031 L 19.332031 4.667969 L 16.667969 4.667969 L 16.667969 1.332031 L 15.332031 1.332031 L 15.332031 4.667969 L 12.667969 4.667969 L 12.667969 1.332031 L 11.332031 1.332031 L 11.332031 4.667969 L 8.667969 4.667969 L 8.667969 1.332031 L 7.332031 1.332031 L 7.332031 4.667969 L 5.332031 4.667969 C 4.964844 4.667969 4.667969 4.964844 4.667969 5.332031 L 4.667969 7.332031 L 1.332031 7.332031 L 1.332031 8.667969 L 4.667969 8.667969 L 4.667969 11.332031 L 1.332031 11.332031 L 1.332031 12.667969 L 4.667969 12.667969 L 4.667969 15.332031 L 1.332031 15.332031 L 1.332031 16.667969 L 4.667969 16.667969 L 4.667969 19.332031 L 1.332031 19.332031 L 1.332031 20.667969 L 4.667969 20.667969 L 4.667969 23.332031 L 1.332031 23.332031 L 1.332031 24.667969 L 4.667969 24.667969 L 4.667969 26.667969 C 4.667969 27.035156 4.964844 27.332031 5.332031 27.332031 L 7.332031 27.332031 L 7.332031 30.667969 L 8.667969 30.667969 L 8.667969 27.332031 L 11.332031 27.332031 L 11.332031 30.667969 L 12.667969 30.667969 L 12.667969 27.332031 L 15.332031 27.332031 L 15.332031 30.667969 L 16.667969 30.667969 L 16.667969 27.332031 L 19.332031 27.332031 L 19.332031 30.667969 L 20.667969 30.667969 L 20.667969 27.332031 L 23.332031 27.332031 L 23.332031 30.667969 L 24.667969 30.667969 L 24.667969 27.332031 L 26.667969 27.332031 C 27.035156 27.332031 27.332031 27.035156 27.332031 26.667969 L 27.332031 24.667969 L 30.667969 24.667969 L 30.667969 23.332031 L 27.332031 23.332031 L 27.332031 20.667969 L 30.667969 20.667969 L 30.667969 19.332031 L 27.332031 19.332031 L 27.332031 16.667969 L 30.667969 16.667969 L 30.667969 15.332031 L 27.332031 15.332031 L 27.332031 12.667969 L 30.667969 12.667969 L 30.667969 11.332031 L 27.332031 11.332031 L 27.332031 8.667969 Z M 21.367188 15.636719 C 21.519531 15.429688 21.761719 15.324219 22.089844 15.324219 C 22.394531 15.324219 22.667969 15.414062 22.917969 15.589844 L 22.917969 17.605469 C 22.671875 17.78125 22.378906 17.878906 22.074219 17.882812 C 21.449219 17.882812 21.136719 17.453125 21.136719 16.59375 C 21.136719 16.164062 21.214844 15.84375 21.367188 15.636719 M 21.804688 18.566406 C 22.238281 18.566406 22.621094 18.421875 22.957031 18.125 L 23.042969 18.484375 L 23.785156 18.484375 L 23.785156 13.058594 L 22.917969 13.058594 L 22.917969 15.023438 C 22.613281 14.777344 22.238281 14.644531 21.847656 14.644531 C 21.519531 14.644531 21.238281 14.726562 20.996094 14.898438 C 20.75 15.074219 20.558594 15.316406 20.449219 15.597656 C 20.316406 15.925781 20.25 16.273438 20.257812 16.628906 C 20.257812 17.222656 20.398438 17.691406 20.679688 18.042969 C 20.960938 18.390625 21.335938 18.566406 21.804688 18.566406 M 18.746094 17.628906 C 18.601562 17.742188 18.453125 17.828125 18.304688 17.886719 C 18.148438 17.949219 18.003906 17.980469 17.867188 17.980469 C 17.722656 17.988281 17.578125 17.933594 17.472656 17.835938 C 17.378906 17.742188 17.332031 17.609375 17.332031 17.4375 C 17.332031 17.042969 17.578125 16.84375 18.074219 16.84375 C 18.269531 16.84375 18.492188 16.871094 18.746094 16.925781 Z M 17.894531 16.300781 C 17.457031 16.300781 17.105469 16.40625 16.84375 16.625 C 16.582031 16.835938 16.449219 17.125 16.449219 17.488281 C 16.449219 17.816406 16.558594 18.082031 16.769531 18.289062 C 16.984375 18.492188 17.261719 18.597656 17.601562 18.597656 C 17.808594 18.597656 18.015625 18.554688 18.222656 18.472656 C 18.429688 18.386719 18.621094 18.269531 18.789062 18.125 L 18.855469 18.484375 L 19.613281 18.484375 L 19.613281 15.851562 C 19.613281 15.4375 19.496094 15.128906 19.265625 14.9375 C 19.03125 14.742188 18.671875 14.644531 18.183594 14.644531 C 17.917969 14.644531 17.648438 14.671875 17.382812 14.722656 C 17.148438 14.765625 16.921875 14.839844 16.707031 14.945312 L 16.707031 15.550781 C 17.203125 15.390625 17.636719 15.3125 18.019531 15.3125 C 18.289062 15.308594 18.476562 15.359375 18.585938 15.457031 C 18.691406 15.554688 18.746094 15.726562 18.746094 15.976562 L 18.746094 16.410156 C 18.46875 16.339844 18.183594 16.300781 17.894531 16.300781 M 13.882812 18.597656 C 13.394531 18.597656 12.925781 18.492188 12.476562 18.300781 L 12.476562 17.609375 C 13.011719 17.789062 13.472656 17.882812 13.863281 17.882812 C 14.585938 17.882812 14.949219 17.566406 14.949219 16.941406 C 14.949219 16.644531 14.855469 16.421875 14.675781 16.277344 C 14.492188 16.140625 14.203125 16.074219 13.804688 16.070312 C 13.507812 16.070312 13.136719 16.097656 12.6875 16.144531 L 12.6875 15.589844 L 12.828125 13.398438 L 15.585938 13.398438 L 15.585938 14.101562 L 13.644531 14.101562 L 13.5625 15.453125 C 13.761719 15.414062 13.972656 15.394531 14.199219 15.394531 C 14.703125 15.394531 15.105469 15.53125 15.398438 15.804688 C 15.6875 16.082031 15.832031 16.453125 15.835938 16.929688 C 15.835938 17.4375 15.660156 17.84375 15.308594 18.144531 C 14.953125 18.445312 14.476562 18.59375 13.882812 18.597656 M 9.089844 14.09375 L 10 14.09375 C 10.554688 14.09375 10.832031 14.375 10.832031 14.9375 C 10.832031 15.5 10.546875 15.78125 9.980469 15.78125 L 9.089844 15.78125 Z M 9.089844 16.46875 L 9.984375 16.46875 L 11.171875 18.484375 L 12.066406 18.484375 L 10.753906 16.316406 C 11.074219 16.1875 11.320312 16.003906 11.488281 15.765625 C 11.660156 15.527344 11.742188 15.238281 11.742188 14.90625 C 11.742188 14.449219 11.59375 14.082031 11.292969 13.8125 C 10.992188 13.539062 10.589844 13.402344 10.09375 13.402344 L 8.191406 13.402344 L 8.191406 18.484375 L 9.089844 18.484375 Z M 9.089844 16.46875 "/>
</svg>

<svg role="img" viewBox="0 0 32 32" xmlns="http://www.w3.org/2000/svg"><path d="M6 26h20V6H6ZM30.668 8.668V7.332h-3.336v-2a.664.664 0 0 0-.664-.664h-2V1.332h-1.336v3.336h-2.664V1.332h-1.336v3.336h-2.664V1.332h-1.336v3.336h-2.664V1.332h-1.336v3.336H8.668V1.332H7.332v3.336h-2a.664.664 0 0 0-.664.664v2H1.332v1.336h3.336v2.664H1.332v1.336h3.336v2.664H1.332v1.336h3.336v2.664H1.332v1.336h3.336v2.664H1.332v1.336h3.336v2c0 .367.297.664.664.664h2v3.336h1.336v-3.336h2.664v3.336h1.336v-3.336h2.664v3.336h1.336v-3.336h2.664v3.336h1.336v-3.336h2.664v3.336h1.336v-3.336h2a.664.664 0 0 0 .664-.664v-2h3.336v-1.336h-3.336v-2.664h3.336v-1.336h-3.336v-2.664h3.336v-1.336h-3.336v-2.664h3.336v-1.336h-3.336V8.668Zm-9.3 6.969q.229-.312.722-.313c.305 0 .578.09.828.266v2.015a1.47 1.47 0 0 1-.844.278q-.937 0-.937-1.29.001-.645.23-.956m.437 2.93q.649.002 1.152-.442l.086.36h.742v-5.426h-.867v1.964a1.7 1.7 0 0 0-1.07-.378q-.49-.002-.852.253a1.57 1.57 0 0 0-.547.7 2.6 2.6 0 0 0-.191 1.03c0 .595.14 1.063.422 1.415q.42.523 1.125.523m-3.059-.938q-.215.17-.441.258-.231.093-.438.093a.53.53 0 0 1-.394-.144q-.141-.141-.141-.398-.001-.593.742-.594.293 0 .672.082Zm-.851-1.328c-.438 0-.79.105-1.051.324q-.394.32-.395.863c0 .328.11.594.32.801.215.203.493.309.833.309q.31-.001.62-.125a2 2 0 0 0 .567-.348l.066.36h.758v-2.633q-.001-.623-.347-.915-.351-.292-1.082-.292c-.266 0-.536.027-.801.078a2.7 2.7 0 0 0-.676.222v.606c.496-.16.93-.239 1.313-.239q.404-.001.566.145.159.148.16.52v.433a3.6 3.6 0 0 0-.851-.11m-4.012 2.297c-.488 0-.957-.102-1.406-.297v-.688q.802.27 1.386.27 1.085 0 1.086-.938c0-.3-.094-.523-.273-.664q-.275-.206-.871-.207-.444 0-1.117.074v-.558l.14-2.188h2.758v.7h-1.941l-.082 1.355q.298-.059.636-.059.76 0 1.2.41.435.412.437 1.122 0 .765-.527 1.215-.532.451-1.426.453M9.09 14.094H10q.832 0 .832.844 0 .843-.852.843h-.89Zm0 2.375h.894l1.188 2.015h.894l-1.312-2.168q.481-.193.734-.55c.172-.239.254-.528.254-.86q.001-.687-.449-1.094c-.3-.273-.703-.41-1.2-.41H8.192v5.082h.899Zm0 0" fill="rgb(83.137256%, 35.686275%, 2.745098%)" fill-rule="evenodd"/></svg>
